X:52
T:Kevin Keegan's Waltz
M:3/4
L:1/8
K:Em
B,D|E2 F G2 F|E2 F E/D/B, D| G2 F G2 A|(B2 B2) GA|
B2 e d2 ed|B2 A B2 A|1 G2 E D2 B,|(D2 D2) B,D :|2 G2 E E2 D|(E2 E2) (3ABd ||
e2 f e2 d|B2 d B2 A|G2 F G2 A|(B2 B2) GA|
B2 e d2 ed|B2 A B2 A|1 G2 E D2 B,|(D2 D2) ABd:|2 G2 E E2 D| (E2 E2) B,D ||
